src/lib/packages/icons/src/assets/filled/file-star.svg

<svg width="24" height="24" viewBox="0 0 24 24" fill="none" xmlns="http://www.w3.org/2000/svg">
<path d="M14.75 6V3.75L19.25 8.25H17C15.42 8.25 14.75 7.58 14.75 6ZM20 9.75V18C20 20 19 21 17 21H8C6 21 5 20 5 18V6C5 4 6 3 8 3H13.25V6C13.25 8.42 14.58 9.75 17 9.75H20ZM15.666 12.932L13.9231 12.684C13.7961 12.666 13.6859 12.588 13.6299 12.475L12.875 10.977C12.722 10.673 12.28 10.673 12.127 10.977L11.3721 12.475C11.3151 12.588 11.2051 12.666 11.0791 12.684L9.33594 12.932C9.01594 12.977 8.88912 13.363 9.12012 13.584L10.3799 14.786C10.4719 14.874 10.5139 15.001 10.4919 15.125L10.2041 16.769C10.1451 17.103 10.5031 17.358 10.8091 17.201L12.3201 16.424C12.4341 16.366 12.5689 16.366 12.6819 16.424L14.1941 17.202C14.5001 17.359 14.8571 17.105 14.7981 16.771L14.51 15.125C14.488 15.001 14.5301 14.874 14.6221 14.786L15.8821 13.584C16.1131 13.363 15.986 12.978 15.666 12.932Z" fill="currentColor"/>
</svg>

<svg xmlns="http://www.w3.org/2000/svg" width="24" height="24" fill="none"><path fill="currentColor" d="M14.75 6V3.75l4.5 4.5H17c-1.58 0-2.25-.67-2.25-2.25ZM20 9.75V18c0 2-1 3-3 3H8c-2 0-3-1-3-3V6c0-2 1-3 3-3h5.25v3c0 2.42 1.33 3.75 3.75 3.75h3Zm-4.334 3.182-1.743-.248a.387.387 0 0 1-.293-.209l-.755-1.498a.42.42 0 0 0-.748 0l-.755 1.498a.39.39 0 0 1-.293.209l-1.743.248a.38.38 0 0 0-.216.652l1.26 1.202a.378.378 0 0 1 .112.339l-.288 1.644c-.059.334.3.589.605.432l1.511-.777a.398.398 0 0 1 .362 0l1.512.778c.306.157.663-.097.604-.431l-.288-1.646a.378.378 0 0 1 .112-.339l1.26-1.202a.38.38 0 0 0-.216-.652Z"/></svg>
